X:1
T:Title
%%score { ( 1 3 ) | 2 }
L:1/8
M:3/4
K:G
V:1 treble nm="Grand Piano"
V:3 treble 
V:2 bass 
V:1
 z2 z2[Q:1/4=110] [B,D]2 | [B,G]2 [DB]2 [DB]2 | [DB]4 [DG]>[DF] | [CE]2 [EG]2 [CE]2 | %4
 [CE]2 [B,D]2 D2 | G2 B2 d2 | d4 B>A | G2 F2 G2 | [FA]4 z C | [B,G]2 [DB]2 [DB]2 | %10
 [DB]4 [DG]>[DF] | [CE]2 [EG]2 [CE]2 | [CE]2 [B,D]2 D2 | G2 B2 d2 | d4 B>G | [GB]2 [GB]2 [CFA]2 | %16
[M:2/4] [B,G]4 |[M:1/4] B>c |[M:3/4] d2 B2 c2 | d4 G>A | B2 [DG]2 A2 | B4 B2 | A2 A2 A2 | %23
 c2 B2 A2 | B2 [GB]2 ^c2 | [Fd]4 B>c | d2 B2 c2 | d4 G>A | B2 [DG]2 [DA]2 | [DB]4 [G,B,G]>[G,DF] | %30
 [G,CE]2 [G,EG]2 [G,CE]2 | [G,CE]2 [G,B,D]2 [B,DG]2 | [CEA]2 [B,DG]2 [A,DF]2 |[M:2/4] [B,DG]4 |] %34
V:2
 z2 z2 [G,,G,]2 | [G,,G,]2 [G,,G,]2 [G,,G,]2 | [G,,G,]4 [B,,G,]>[B,,G,] | [C,G,]2 [C,G,]2 [C,G,]2 | %4
 [G,,G,]2 [G,,G,]2 [G,B,]2 | [G,B,]2[K:treble] [G,D]2 [G,B,G]2 | [G,B,G]4 [G,DG]>[A,DF] | %7
 [B,D]2 [A,CD]2 [G,B,]2 | [D,D]4 [D,F,]2 | [G,,G,]2 [G,,G,]2 [G,,G,]2 | [G,,G,]4 [B,,G,]>[B,,G,] | %11
 [C,G,]2 [C,G,]2 [C,G,]2 | [G,,G,]2 [G,,G,]2 [G,B,]2 | [G,B,D]2 [G,D]2 [G,B,G]2 | %14
 [G,B,G]4 [G,DG]>[K:bass][G,B,] | [D,D]2 [D,D]2 D,2 |[M:2/4] G,,4 |[M:1/4] [G,D]>[G,A,D] | %18
[M:3/4] [G,B,D]2 [G,D]2 [A,D]2 | [G,B,D]4 [G,B,]>[G,C] | [G,D]2 [B,,G,]2 [D,F,D]2 | [G,D]4 [G,D]2 | %22
 [D,F,D]2 [D,F,D]2 [D,F,D]2 | [D,A,D]2 [D,G,D]2 [D,F,D]2 | [G,D]2 [E,E]2 [A,G]2 | %25
 [D,A,]4[K:treble] [G,G]>[G,A,G] | [G,B,G]2 [G,D]2 [G,A,D]2 | [G,B,D]4 [G,B,]>[G,C] | %28
 [G,D]2 [B,,G,]2 [D,F,]2 | G,4 G,,>G,, | C,2 C,2 C,2 | G,,2 G,,2 G,,2 | C,2 D,2 D,2 | %33
[M:2/4] G,,4 |] %34
V:3
 x6 | x6 | x6 | x6 | x6 | x6 | x6 | x6 | z2 z2 D2 | x6 | x6 | x6 | x6 | x6 | x6 | x6 |[M:2/4] x4 | %17
[M:1/4] x2 |[M:3/4] x6 | x6 | x6 | x6 | x6 | x6 | x6 | x6 | x6 | x6 | x6 | x6 | x6 | x6 | x6 | %33
[M:2/4] x4 |] %34

